X:1
T:You're a Grand Old Flag
T:You're a Grand Old Flag
%%score { 1 | 2 }
L:1/8
Q:1/4=120
M:4/4
K:C
V:1 treble nm="Piano"
V:2 bass 
V:1
 GE | C2 C2 C2 z2 | C2 DB, C2 z2 | C2 z2 C2 z2 | z8 | z2 C2 D3 z | C2 D2 E3 C | D2 EC D2 EC | %8
 D6 GE | C2 C2 C2 z2 | C2 DB, C2 z2 | z2 ^CE z2 E2 | D6 z2 | C3 B, C2 E2 | D3 ^C D2 z2 | z4 C2 D2 | %16
 C6 z2 |] %17
V:2
 z2 | z4 z2 A,G, | z4 z2 A,G, | z2 A,G, z2 A,G, | B,6 G,A, | B,2 z2 z2 z G, | z8 | z8 | z8 | %9
 z4 z2 A,G, | z4 z2 B,_B, | A,2 z2 A,2 z2 | z4 z2 G,2 | z8 | z4 z2 B,G, | A,2 CA, z4 | z8 |] %17

